Newaita-dark/actions/24/kdenlive-align-right.svg

<svg height="24" viewBox="0 0 24 24" width="24" xmlns="http://www.w3.org/2000/svg"><g fill="#e0e0e0"><path d="m18.851562 4.15625h-.992187c-.273437 0-.496094.222656-.496094.496094v14.882812c0 .277344.222657.496094.496094.496094h.992187c.277344 0 .496094-.21875.496094-.496094v-14.882812c0-.273438-.21875-.496094-.496094-.496094zm0 0"/><path d="m5.457031 13.085938h8.929688c.550781 0 .992187-.441407.992187-.992188 0-.546875-.441406-.992188-.992187-.992188h-8.929688c-.546875 0-.992187.445313-.992187.992188 0 .550781.445312.992188.992187.992188zm0 0"/><path d="m6.671875 5.78125 7.015625 7.015625c.386719.386719 1.015625.386719 1.402344 0 .386718-.386719.386718-1.015625 0-1.402344l-7.015625-7.019531c-.386719-.386719-1.015625-.386719-1.402344 0-.390625.390625-.390625 1.015625 0 1.40625zm0 0"/><path d="m8.074219 19.8125 7.015625-7.015625c.386718-.386719.386718-1.015625 0-1.402344-.386719-.386719-1.015625-.386719-1.402344 0l-7.015625 7.015625c-.390625.386719-.390625 1.015625 0 1.402344.386719.386719 1.015625.386719 1.402344 0zm0 0"/></g></svg>

<svg xmlns="http://www.w3.org/2000/svg" xmlns:xlink="http://www.w3.org/1999/xlink" width="24px" height="24px" viewBox="0 0 24 24" version="1.1">
<g id="surface1">
     <defs>
  <style id="current-color-scheme" type="text/css">
   .ColorScheme-Text { color:#eeeeee; } .ColorScheme-Highlight { color:#424242; }
  </style>
 </defs>
<path style="fill:currentColor" class="ColorScheme-Text" d="M 18.851562 4.15625 L 17.859375 4.15625 C 17.585938 4.15625 17.363281 4.378906 17.363281 4.652344 L 17.363281 19.535156 C 17.363281 19.8125 17.585938 20.03125 17.859375 20.03125 L 18.851562 20.03125 C 19.128906 20.03125 19.347656 19.8125 19.347656 19.535156 L 19.347656 4.652344 C 19.347656 4.378906 19.128906 4.15625 18.851562 4.15625 Z M 18.851562 4.15625 "/>
     <defs>
  <style id="current-color-scheme" type="text/css">
   .ColorScheme-Text { color:#eeeeee; } .ColorScheme-Highlight { color:#424242; }
  </style>
 </defs>
<path style="fill:currentColor" class="ColorScheme-Text" d="M 5.457031 13.085938 L 14.386719 13.085938 C 14.9375 13.085938 15.378906 12.644531 15.378906 12.09375 C 15.378906 11.546875 14.9375 11.101562 14.386719 11.101562 L 5.457031 11.101562 C 4.910156 11.101562 4.464844 11.546875 4.464844 12.09375 C 4.464844 12.644531 4.910156 13.085938 5.457031 13.085938 Z M 5.457031 13.085938 "/>
     <defs>
  <style id="current-color-scheme" type="text/css">
   .ColorScheme-Text { color:#eeeeee; } .ColorScheme-Highlight { color:#424242; }
  </style>
 </defs>
<path style="fill:currentColor" class="ColorScheme-Text" d="M 6.671875 5.78125 L 13.6875 12.796875 C 14.074219 13.183594 14.703125 13.183594 15.089844 12.796875 C 15.476562 12.410156 15.476562 11.78125 15.089844 11.394531 L 8.074219 4.375 C 7.6875 3.988281 7.058594 3.988281 6.671875 4.375 C 6.28125 4.765625 6.28125 5.390625 6.671875 5.78125 Z M 6.671875 5.78125 "/>
     <defs>
  <style id="current-color-scheme" type="text/css">
   .ColorScheme-Text { color:#eeeeee; } .ColorScheme-Highlight { color:#424242; }
  </style>
 </defs>
<path style="fill:currentColor" class="ColorScheme-Text" d="M 8.074219 19.8125 L 15.089844 12.796875 C 15.476562 12.410156 15.476562 11.78125 15.089844 11.394531 C 14.703125 11.007812 14.074219 11.007812 13.6875 11.394531 L 6.671875 18.410156 C 6.28125 18.796875 6.28125 19.425781 6.671875 19.8125 C 7.058594 20.199219 7.6875 20.199219 8.074219 19.8125 Z M 8.074219 19.8125 "/>
</g>
</svg>
